X: 15126
T: Gift Of Falling, The
R: waltz
M: 3/4
K: Bminor
Bc|:d3 c dc|A4 FE|F3 E FA|A4 Bc|d3 e (3edc|A4 FE|F3 E FA|B4 Bc:|
|:B2 BB fd|ec3 c2|B2 A2 E2|F3 E FA|B2 BB fd|e c3 (3cec|c2 a2 f2|1 b6|2 b4 F2:|
|:A3 E FE|D3 c B2|G3A (F2|F3) A (3DEF|A3 E FE|D3 D EF|A4 c2|B6:|

